icons/Regex-Dark.svg

<svg xmlns="http://www.w3.org/2000/svg" width="256" height="256" fill="none" viewBox="0 0 256 256"><rect width="256" height="256" fill="#242938" rx="60"/><path fill="#36C" d="M43.9346 127.954C43.9029 139.053 45.4178 150.108 48.4411 160.84C51.4821 171.299 55.9591 181.345 61.7603 190.728C62.2355 191.516 62.5735 192.37 62.7617 193.258C62.9443 193.902 62.9443 194.58 62.7617 195.225C62.5533 195.762 62.2098 196.244 61.7603 196.631L60.3583 197.661L52.0463 202.346C47.8329 196.376 44.1166 190.111 40.9303 183.607C37.9404 177.552 35.4625 171.287 33.5196 164.869C31.6028 158.734 30.1966 152.469 29.3135 146.13C27.5622 133.253 27.5622 120.219 29.3135 107.342C30.1966 101.003 31.6028 94.7384 33.5196 88.6032C35.471 82.188 37.9486 75.9232 40.9303 69.8647C44.1084 64.0128 47.7225 58.3773 51.7459 53L60.0578 57.7783L61.4599 58.8089C61.9036 59.2 62.2462 59.6807 62.4613 60.2143C62.6439 60.8591 62.6439 61.5371 62.4613 62.1819C62.2699 63.0686 61.932 63.9221 61.4599 64.7116C49.8426 84.0092 43.8023 105.806 43.9346 127.954V127.954ZM77.7834 160.84C77.7569 158.947 78.1313 157.069 78.885 155.312C79.6023 153.641 80.6562 152.114 81.9895 150.815C84.1089 148.829 86.8154 147.482 89.7604 146.947C92.7054 146.413 95.7539 146.716 98.5133 147.817C102.121 149.25 104.993 151.937 106.525 155.312C107.329 157.058 107.738 158.94 107.727 160.84C107.741 162.741 107.332 164.623 106.525 166.368C105.765 168.04 104.678 169.566 103.32 170.865C101.947 172.154 100.313 173.173 98.5133 173.863C94.7241 175.301 90.4854 175.301 86.6963 173.863C84.9246 173.176 83.3227 172.155 81.9895 170.865C80.6183 169.535 79.541 167.965 78.8193 166.245C78.0975 164.524 77.7455 162.688 77.7834 160.84V160.84ZM185.939 116.617L180.532 125.424L163.006 116.055L159.601 113.9C158.586 113.207 157.676 112.387 156.897 111.464C157.762 113.746 158.103 116.172 157.899 118.585V137.323H147.884V118.585C147.826 116.163 148.233 113.751 149.086 111.464C147.506 113.326 145.528 114.857 143.278 115.961L125.853 125.331L120.445 116.524L137.77 107.154C140.079 105.834 142.623 104.914 145.281 104.437C142.596 104.111 140.027 103.213 137.77 101.814L119.844 92.3509L125.252 83.5438L142.777 92.913L146.082 95.1616C147.085 95.9035 147.993 96.7525 148.786 97.6913C147.985 95.3646 147.679 92.9138 147.884 90.477V71.7385H157.899V90.477C157.99 91.7248 157.99 92.9769 157.899 94.2247C157.733 95.3868 157.396 96.5218 156.897 97.5976C158.57 95.7609 160.569 94.2078 162.806 93.0067L180.231 83.6374L185.639 92.4445L168.314 101.814L164.709 103.5C163.562 103.975 162.348 104.29 161.104 104.437C162.333 104.649 163.539 104.963 164.709 105.374C165.972 105.851 167.18 106.448 168.314 107.154L185.939 116.617ZM211.676 127.954C211.706 116.855 210.191 105.801 207.17 95.0679C204.181 84.3689 199.739 74.0725 193.951 64.4305C193.479 63.641 193.141 62.7875 192.949 61.9008C192.784 61.2541 192.784 60.5799 192.949 59.9332C193.15 59.3929 193.495 58.9093 193.951 58.5279L195.353 57.4972L203.965 53C208.123 58.9851 211.805 65.2481 214.981 71.7385C217.965 77.7963 220.442 84.0612 222.392 90.477C224.31 96.6119 225.716 102.877 226.598 109.216C227.479 115.429 227.948 121.687 228 127.954C227.98 134.219 227.545 140.477 226.698 146.693C225.817 153.031 224.41 159.296 222.492 165.431C220.551 171.849 218.073 178.115 215.081 184.17C211.907 190.661 208.225 196.924 204.065 202.908L195.653 198.223L194.251 197.193C193.792 196.814 193.447 196.33 193.25 195.787C193.08 195.141 193.08 194.466 193.25 193.82C193.438 192.932 193.776 192.078 194.251 191.29C199.992 181.77 204.401 171.599 207.37 161.027C210.337 150.225 211.784 139.107 211.676 127.954V127.954Z"/></svg>

<svg xmlns="http://www.w3.org/2000/svg" width="256" height="256" fill="none" viewBox="0 0 256 256"><rect width="256" height="256" fill="#242938" rx="60"/><path fill="#36C" d="M43.93 127.95a120 120 0 0 0 4.51 32.89 121 121 0 0 0 13.32 29.89q.72 1.19 1 2.53a3.6 3.6 0 0 1 0 1.97q-.31.8-1 1.4l-1.4 1.03-8.31 4.69a137 137 0 0 1-11.12-18.74 123 123 0 0 1-7.41-18.74 117 117 0 0 1-4.2-18.74 144 144 0 0 1 0-38.79q1.32-9.52 4.2-18.74a125 125 0 0 1 7.41-18.74Q45.71 61.08 51.75 53l8.3 4.78 1.41 1.03q.67.6 1 1.4a3.6 3.6 0 0 1 0 1.97q-.29 1.34-1 2.53a121 121 0 0 0-17.53 63.24m33.85 32.89q-.03-2.87 1.1-5.53a14 14 0 0 1 3.11-4.5 15.4 15.4 0 0 1 7.77-3.86c2.95-.54 6-.23 8.75.87a14.7 14.7 0 0 1 8.02 7.5 13.2 13.2 0 0 1 0 11.05 15 15 0 0 1-3.21 4.5c-1.37 1.28-3 2.3-4.8 3a16.7 16.7 0 0 1-11.82 0 14 14 0 0 1-7.88-7.62 13 13 0 0 1-1.04-5.41m108.16-44.22-5.4 8.8-17.53-9.36-3.4-2.16a14 14 0 0 1-2.71-2.44c.86 2.29 1.2 4.71 1 7.13v18.73h-10.02V118.6a19 19 0 0 1 1.2-7.13 18 18 0 0 1-5.8 4.5l-17.43 9.37-5.4-8.8 17.32-9.38a24 24 0 0 1 7.51-2.71 18.5 18.5 0 0 1-7.51-2.63l-17.93-9.46 5.41-8.8 17.53 9.36 3.3 2.25q1.5 1.12 2.7 2.53a18 18 0 0 1-.9-7.21V71.74h10.02v18.74q.13 1.87 0 3.74-.25 1.76-1 3.38a22 22 0 0 1 5.9-4.6l17.43-9.36 5.4 8.8-17.32 9.37-3.6 1.69a14 14 0 0 1-3.6.94q1.84.3 3.6.93 1.9.72 3.6 1.78zm25.74 11.33c.03-11.1-1.49-22.15-4.51-32.88-2.99-10.7-7.43-21-13.22-30.64a8 8 0 0 1-1-2.53 4 4 0 0 1 0-1.97q.31-.82 1-1.4l1.4-1.03 8.62-4.5a143 143 0 0 1 11.01 18.74 124 124 0 0 1 7.41 18.74q2.89 9.21 4.2 18.74a140 140 0 0 1 1.41 18.73q-.04 9.41-1.3 18.74-1.33 9.52-4.2 18.74a122 122 0 0 1-7.42 18.74 143 143 0 0 1-11.02 18.74l-8.4-4.69-1.4-1.03q-.7-.58-1.01-1.4a4 4 0 0 1 0-1.97q.29-1.34 1-2.53a123 123 0 0 0 13.12-30.26 120 120 0 0 0 4.3-33.08"/></svg>
